app/dist/common/images/munichre.svg

<svg height="18" viewBox="0 0 18 18" width="18" xmlns="http://www.w3.org/2000/svg"><path d="m0 0h18v18h-18z" fill="#175788"/><path d="m14 10.2v.7h-8.1l-.7-.7zm-5-6.2-.69.69h5.69v-.69zm-2.07 2.07-.69.69h7.76v-.7h-7.07zm-2.07 2.07-.69.69h9.83v-.7h-9.14zm2.42 4.14.69.69h6.03v-.7h-6.72zm3.44-6.56h-6.72v-.69h6.04l.68.7zm-6.72 3.45v.7h9.14l.69-.7zm0 2.07v.7h7.07l.69-.7zm0 2.07v.69h5l.69-.69zm8.1-6.2h-8.1v.68h8.8l-.7-.69z" fill="#fff"/></svg>

<!-- by TradingView --><svg xmlns="http://www.w3.org/2000/svg" width="18" height="18" viewBox="0 0 18 18"><path fill="#175788" d="M0 0h18v18H0z"/><path d="M14 10.2v.7H5.9l-.7-.7H14zM9 4l-.69.69H14V4H9zM6.93 6.07l-.69.69H14v-.7H6.93zM4.86 8.14l-.69.69H14v-.7H4.86zm2.42 4.14l.69.69H14v-.7H7.28zm3.44-6.56H4v-.69h6.04l.68.7zM4 9.17v.7h9.14l.69-.7H4zm0 2.07v.7h7.07l.69-.7H4zm0 2.07V14h5l.69-.69H4zm8.1-6.2H4v.68h8.8l-.7-.69z" fill="#fff"/></svg>
